X:51
T:Arkansas Traveller 48
R:Reel
% 48-bar Reels
C:Trad, extended by Pete Mac 2008
O:England
Z:Pete Mac Tunebook 2023 (see https://pghardy.net/tunebooks/).
Z:Creative Commons CC0 (Public Domain) licenced.
M:4/4
L:1/8
Q:1/4=210
K:A
cB|"A"AcBA "D"F2F2|"A"E2E2 A4|"E7"B2B2 "A"c2c2|"E7"BcBA "A"F2E2|AcBA "D"F2F2|"A"E2E2 A4|agae "D"f2ed|"E7"c2B2 "A"A2:|
|:E2|"A"EFAB c2cA|"D"d2dB "A"c2cA|EFAB c2cA|"E7"dcB2 "A"c4|EFAB c2cA|"D"d2dB "A"c2cA|EFAB c2cA|"E7"dcB2 "A"A2:|
|:cd|"A"e2cc "E7"d2B2|"A"c2A2 "E7"B2E2|"A"A2cc "E7"B2d2|"A"cde2 "E7"B4|"A"e2cc "E7"d2B2|"A"c2A2 "E7"B2e2|"A"agae "D"f2ed|"E7"c2B2 "A"A2:|

% This tunebook contains tunes written or extended by Pete Mac, who wishes 
% them to be freely used. Pete says: "I play piano accordion, melodeon and 
% English Concertina. I ran a folk dance and barn dance band for 40 years, in 
% Cambridgeshire and then in Devon where I now live. % I wrote these tunes for 
% use in the bands, and am pleased if others play them. I still lead bands and 
% workshops occasionally, mostly in the Camping and Caravanning Club 'Folk 
% Group' which has been a lifetime involvement, and of which I am a founder 
% member."  
% The tunes (written between 1988 and 2006) are released under a Creative 
% Commons Zero licence - CC0 1.0. To view a copy of this license, visit 
% http://creativecommons.org/publicdomain/zero/1.0. 
% Through this licence, the author has dedicated the work to the public domain 
% by waiving all of his rights worldwide under copyright law, including all 
% related and neighboring rights, to the extent allowed by law.  
% You can copy, modify, distribute and perform these tunes, even for 
% commercial purposes, all without asking permission. 
% Editing, layout and publishing of this Tunebook and its ABC music is by Paul 
% Hardy (paul@paulhardy.net), who releases his assistance work under the same 
% CC0 1.0 licence. See https://pghardy.net/tunebooks/ for downloads of this 
% and more of Paul's tunebooks.
% Original tunebook of 19 October 2023. This version of 8 November 2023.